X: 55
T: Silver Spear 
M: 4/4
L: 1/8
R: Reel
K: D
FA ~A2 BAFA|dfed BdA2|FA~A2 BAFA|dfed B2 A2|
FA ~A2 BAFA|dfed BABd|g2 gef2 fe|dfed B2 A2 :|
fa ~a2 bfaf|gfed Bd A2|fa~a2 bfaf|gfed B2 A2|
fa ~a2 bfaf|gfed BABd|g2 gef2 fe|dfed B2 A2 :|
